SVG_Azure_All/Azure Stack Multi-Tenant.svg

<?xml version="1.0" encoding="UTF-8" standalone="no"?>
<!-- Generated by Microsoft Visio, SVG Export Azure Stack Multi-Tenant.svg Page-1 -->

<svg
   xmlns:dc="http://purl.org/dc/elements/1.1/"
   xmlns:cc="http://creativecommons.org/ns#"
   xmlns:rdf="http://www.w3.org/1999/02/22-rdf-syntax-ns#"
   xmlns:svg="http://www.w3.org/2000/svg"
   xmlns="http://www.w3.org/2000/svg"
   xmlns:sodipodi="http://sodipodi.sourceforge.net/DTD/sodipodi-0.dtd"
   xmlns:inkscape="http://www.inkscape.org/namespaces/inkscape"
   width="0.78762168in"
   height="0.78742862in"
   viewBox="0 0 56.708759 56.695001"
   xml:space="preserve"
   class="st7"
   version="1.1"
   id="svg68"
   sodipodi:docname="Azure Stack Multi-Tenant.svg"
   style="font-size:12px;overflow:visible;color-interpolation-filters:sRGB;fill:none;fill-rule:evenodd;stroke-linecap:square;stroke-miterlimit:3"
   inkscape:version="0.92.5 (2060ec1f9f, 2020-04-08)"><metadata
   id="metadata72"><rdf:RDF><cc:Work
       rdf:about=""><dc:format>image/svg+xml</dc:format><dc:type
         rdf:resource="http://purl.org/dc/dcmitype/StillImage" /></cc:Work></rdf:RDF></metadata><sodipodi:namedview
   pagecolor="#ffffff"
   bordercolor="#666666"
   borderopacity="1"
   objecttolerance="10"
   gridtolerance="10"
   guidetolerance="10"
   inkscape:pageopacity="0"
   inkscape:pageshadow="2"
   inkscape:window-width="640"
   inkscape:window-height="480"
   id="namedview70"
   showgrid="false"
   inkscape:zoom="1.8365233"
   inkscape:cx="37.819988"
   inkscape:cy="18.900351"
   inkscape:window-x="0"
   inkscape:window-y="0"
   inkscape:window-maximized="0"
   inkscape:current-layer="svg68" />
	<style
   type="text/css"
   id="style2">
	<![CDATA[
		.st1 {fill:#773adc;stroke:none;stroke-linecap:butt;stroke-width:0.75}
		.st2 {fill:url(#grad0-11);stroke:none;stroke-linecap:butt;stroke-width:0.75}
		.st3 {fill:#ffffff;fill-opacity:0.8;stroke:none;stroke-linecap:butt;stroke-width:0.75}
		.st4 {fill:url(#grad0-17);stroke:none;stroke-linecap:butt;stroke-width:0.75}
		.st5 {fill:url(#grad0-21);stroke:none;stroke-linecap:butt;stroke-width:0.75}
		.st6 {fill:#50e6ff;stroke:none;stroke-linecap:butt;stroke-width:0.75}
		.st7 {fill:none;fill-rule:evenodd;font-size:12px;overflow:visible;stroke-linecap:square;stroke-miterlimit:3}
	]]>
	</style>

	<defs
   id="Patterns_And_Gradients">
		<linearGradient
   id="grad0-11"
   x1="-0.01485021"
   y1="89.38088"
   x2="31.340495"
   y2="89.38088"
   gradientTransform="scale(1.2527103,0.79826916)"
   gradientUnits="userSpaceOnUse">
			<stop
   offset="0.225"
   stop-color="#a67af4"
   stop-opacity="1"
   id="stop4" />
			<stop
   offset="1"
   stop-color="#773adc"
   stop-opacity="1"
   id="stop6" />
		</linearGradient>
		<linearGradient
   id="grad0-17"
   x1="0"
   y1="71.450705"
   x2="22.579433"
   y2="71.450705"
   gradientTransform="scale(0.97564007,1.0249682)"
   gradientUnits="userSpaceOnUse">
			<stop
   offset="0.225"
   stop-color="#a67af4"
   stop-opacity="1"
   id="stop9" />
			<stop
   offset="1"
   stop-color="#773adc"
   stop-opacity="1"
   id="stop11" />
		</linearGradient>
		<linearGradient
   id="grad0-21"
   x1="0"
   y1="71.623694"
   x2="27.246137"
   y2="71.623694"
   gradientTransform="scale(1.0258335,0.97481708)"
   gradientUnits="userSpaceOnUse">
			<stop
   offset="0"
   stop-color="#1988d9"
   stop-opacity="1"
   id="stop14" />
			<stop
   offset="0.9"
   stop-color="#54aef0"
   stop-opacity="1"
   id="stop16" />
		</linearGradient>
	</defs>
	<g
   id="g66"
   transform="translate(-5.6507742,-5.6692973)">
		<title
   id="title20">Page-1</title>
		<g
   id="group7547-1"
   transform="translate(5.66929,-34.0157)">
			<title
   id="title22">Azure Stack Multi-Tenant</title>
			<g
   id="group7548-2">
				<title
   id="title24">Sheet.7548</title>
				<g
   id="group7549-3"
   transform="translate(0,-11.2605)">
					<title
   id="title26">Sheet.7549</title>
					<g
   id="shape7550-4"
   transform="translate(27.4989,-7.33446)">
						<title
   id="title28">Sheet.7550</title>
						<path
   d="m 23.88,96.38 a 2.33149,2.44937 -180 0 0 2.33,-2.45 1.67615,1.7609 -180 0 0 0,-0.29 C 25.28,85.94 21.1,79.68 13.13,79.68 5.01,79.68 0.82,84.99 0,93.67 a 2.34724,2.46592 -180 0 0 2.09,2.7 1.97861,2.07865 -180 0 0 0.24,0 z"
   class="st1"
   id="path30"
   inkscape:connector-curvature="0"
   style="fill:#773adc;stroke:none;stroke-width:0.75;stroke-linecap:butt" />
					</g>
					<g
   id="shape7551-6"
   transform="translate(33.2615,-22.2197)">
						<title
   id="title33">Sheet.7551</title>
						<ellipse
   cx="7.3567801"
   cy="88.6492"
   rx="7.3567801"
   ry="7.7287502"
   class="st1"
   id="ellipse35"
   style="fill:#773adc;stroke:none;stroke-width:0.75;stroke-linecap:butt" />
					</g>
					<g
   id="shape7552-8">
						<title
   id="title38">Sheet.7552</title>
						<path
   d="m 35.76,96.38 a 3.49408,3.67074 -180 0 0 3.5,-3.66 3.15066,3.30996 -180 0 0 -0.02,-0.44 C 37.86,80.75 31.6,71.35 19.65,71.35 7.5,71.35 1.22,79.29 0,92.31 a 3.51298,3.6906 -180 0 0 3.13,4.05 3.31134,3.47876 -180 0 0 0.35,0.02 z"
   class="st2"
   id="path40"
   inkscape:connector-curvature="0"
   style="fill:url(#grad0-11);stroke:none;stroke-width:0.75;stroke-linecap:butt" />
					</g>
					<g
   id="shape7553-12"
   transform="translate(13.8755,-7.93065)">
						<title
   id="title43">Sheet.7553</title>
						<path
   d="M 5.95,82.02 A 10.9674,11.522 0 0 1 0,80.18 l 5.9,16.2 5.86,-16.11 a 10.9265,11.4789 0 0 1 -5.81,1.75 z"
   class="st3"
   id="path45"
   inkscape:connector-curvature="0"
   style="fill:#ffffff;fill-opacity:0.8;stroke:none;stroke-width:0.75;stroke-linecap:butt" />
					</g>
					<g
   id="shape7554-14"
   transform="translate(8.74307,-22.2892)">
						<title
   id="title48">Sheet.7554</title>
						<ellipse
   cx="11.0147"
   cy="84.806297"
   rx="11.0147"
   ry="11.5716"
   class="st4"
   id="ellipse50"
   style="fill:url(#grad0-17);stroke:none;stroke-width:0.75;stroke-linecap:butt" />
					</g>
				</g>
				<g
   id="shape7555-18"
   transform="translate(28.7403)">
					<title
   id="title54">Sheet.7555</title>
					<path
   d="M 13.98,69.82 0,90.38 l 13.98,6 13.97,-6 z"
   class="st5"
   id="path56"
   inkscape:connector-curvature="0"
   style="fill:url(#grad0-21);stroke:none;stroke-width:0.75;stroke-linecap:butt" />
				</g>
				<g
   id="shape7556-22"
   transform="translate(28.7403)">
					<title
   id="title59">Sheet.7556</title>
					<path
   d="M 13.98,69.82 0,90.38 l 13.98,6 z"
   class="st6"
   id="path61"
   inkscape:connector-curvature="0"
   style="fill:#50e6ff;stroke:none;stroke-width:0.75;stroke-linecap:butt" />
				</g>
			</g>
		</g>
	</g>
</svg>

<?xml version="1.0" encoding="UTF-8" standalone="no"?>
<!DOCTYPE svg PUBLIC "-//W3C//DTD SVG 1.1//EN" "http://www.w3.org/Graphics/SVG/1.1/DTD/svg11.dtd">
<!-- Generated by Microsoft Visio, SVG Export Azure Stack Multi-Tenant.svg Page-1 -->
<svg xmlns="http://www.w3.org/2000/svg" xmlns:xlink="http://www.w3.org/1999/xlink" xmlns:ev="http://www.w3.org/2001/xml-events"
		width="0.944882in" height="1.33858in" viewBox="0 0 68.0315 96.378" xml:space="preserve" color-interpolation-filters="sRGB"
		class="st7">
	<style type="text/css">
	<![CDATA[
		.st1 {fill:#773adc;stroke:none;stroke-linecap:butt;stroke-width:0.75}
		.st2 {fill:url(#grad0-11);stroke:none;stroke-linecap:butt;stroke-width:0.75}
		.st3 {fill:#ffffff;fill-opacity:0.8;stroke:none;stroke-linecap:butt;stroke-width:0.75}
		.st4 {fill:url(#grad0-17);stroke:none;stroke-linecap:butt;stroke-width:0.75}
		.st5 {fill:url(#grad0-21);stroke:none;stroke-linecap:butt;stroke-width:0.75}
		.st6 {fill:#50e6ff;stroke:none;stroke-linecap:butt;stroke-width:0.75}
		.st7 {fill:none;fill-rule:evenodd;font-size:12px;overflow:visible;stroke-linecap:square;stroke-miterlimit:3}
	]]>
	</style>

	<defs id="Patterns_And_Gradients">
		<linearGradient id="grad0-11" x1="0" y1="0" x2="1" y2="0" gradientTransform="rotate(90 0.5 0.5)">
			<stop offset="0.225" stop-color="#a67af4" stop-opacity="1"/>
			<stop offset="1" stop-color="#773adc" stop-opacity="1"/>
		</linearGradient>
		<linearGradient id="grad0-17" x1="0" y1="0" x2="1" y2="0" gradientTransform="rotate(85.407423117685 0.5 0.5)">
			<stop offset="0.225" stop-color="#a67af4" stop-opacity="1"/>
			<stop offset="1" stop-color="#773adc" stop-opacity="1"/>
		</linearGradient>
		<linearGradient id="grad0-21" x1="0" y1="0" x2="1" y2="0" gradientTransform="rotate(0 0.5 0.5)">
			<stop offset="0" stop-color="#1988d9" stop-opacity="1"/>
			<stop offset="0.9" stop-color="#54aef0" stop-opacity="1"/>
		</linearGradient>
	</defs>
	<g>
		<title>Page-1</title>
		<g id="group7374-1" transform="translate(5.66929,-34.0157)">
			<title>Azure Stack Multi-Tenant</title>
			<g id="group7375-2">
				<title>Sheet.7375</title>
				<g id="group7376-3" transform="translate(2.79776E-13,-11.2605)">
					<title>Sheet.7376</title>
					<g id="shape7377-4" transform="translate(27.4989,-7.33446)">
						<title>Sheet.7377</title>
						<path d="M23.88 96.38 A2.33149 2.44937 -180 0 0 26.21 93.93 A1.67615 1.7609 -180 0 0 26.21 93.64 C25.28 85.94
									 21.1 79.68 13.13 79.68 C5.01 79.68 0.82 84.99 0 93.67 A2.34724 2.46592 -180 0 0 2.09 96.37 A1.97861
									 2.07865 -180 0 0 2.33 96.37 L23.88 96.38 Z" class="st1"/>
					</g>
					<g id="shape7378-6" transform="translate(33.2615,-22.2197)">
						<title>Sheet.7378</title>
						<ellipse cx="7.35678" cy="88.6492" rx="7.35678" ry="7.72875" class="st1"/>
					</g>
					<g id="shape7379-8">
						<title>Sheet.7379</title>
						<path d="M35.76 96.38 A3.49408 3.67074 -180 0 0 39.26 92.72 A3.15066 3.30996 -180 0 0 39.24 92.28 C37.86
									 80.75 31.6 71.35 19.65 71.35 C7.5 71.35 1.22 79.29 0 92.31 A3.51298 3.6906 -180 0 0 3.13 96.36
									 A3.31134 3.47876 -180 0 0 3.48 96.38 L35.76 96.38 Z" class="st2"/>
					</g>
					<g id="shape7380-12" transform="translate(13.8755,-7.93065)">
						<title>Sheet.7380</title>
						<path d="M5.95 82.02 A10.9674 11.522 0 0 1 -0 80.18 L5.9 96.38 L11.76 80.27 A10.9265 11.4789 0 0 1 5.95 82.02
									 Z" class="st3"/>
					</g>
					<g id="shape7381-14" transform="translate(8.74307,-22.2892)">
						<title>Sheet.7381</title>
						<ellipse cx="11.0147" cy="84.8063" rx="11.0147" ry="11.5716" class="st4"/>
					</g>
				</g>
				<g id="shape7382-18" transform="translate(28.7403,1.42109E-14)">
					<title>Sheet.7382</title>
					<path d="M13.98 69.82 L0 90.38 L13.98 96.38 L27.95 90.38 L13.98 69.82 Z" class="st5"/>
				</g>
				<g id="shape7383-22" transform="translate(28.7403,1.42109E-14)">
					<title>Sheet.7383</title>
					<path d="M13.98 69.82 L0 90.38 L13.98 96.38 L13.98 69.82 Z" class="st6"/>
				</g>
			</g>
		</g>
	</g>
</svg>
